X:1
T:Title
%%score { ( 1 3 ) | 2 }
L:1/8
Q:1/4=100
M:4/4
K:Eb
V:1 treble nm="Grand Piano"
V:3 treble 
V:2 bass 
V:1
 G2 G2 G2 G2 | G>F E>F G2 B2 | [FA]2 [DF]2 G2 B2 | =A>A G>A [DB]4 | [EG]2 [EG]2 [EG]2 [EG]2 | %5
w: C.~Austin~Miles * * *|||||
 [EA]>[EA] [EB]>[EB] [Ec]2 [Ee]2 | (3[EB][EB][EB] [EB]>[EG] [DB]>[DA] [EG]>[DF] |[M:3/4] E6 | %8
w: |||
[M:1/4] [Ge]>[Gd] |[M:4/4] c>c c>A c2 e>c | [GB]>[GB] [GB]>[EG] [GB]2 [GB]>[EG] | %11
w: |||
 [DF]>[EG] [FA]>[GB] [Ad]2 [Ac]>[Ac] | B2- [GB-]>[GB-] [GB]2 [Ge]>[Gd] |[M:3/4] c>c c>A c2 | %14
w: |||
[M:1/4] e>c |[M:4/4] [GB]>[GB] [GB]>G e4 | (3BBB B>G [DB]>[DA] [DG]>[DF] | [B,E]6 z2 |] %18
w: ||||
V:2
 [E,B,E]2 [E,B,E]2 [E,B,E]2 [E,B,E]2 | [E,B,E]>[E,A,D] [E,G,]>[E,A,D] [E,B,E]2 [E,G,E]2 | %2
 [B,,B,]2 [B,,B,]2 [E,B,E]2 [E,G,E]2 | [F,CE]>[F,CE] [F,CE]>[F,CE] [B,,B,]4 | %4
 [E,B,]2 [E,B,]2 [_D,B,]2 [D,B,]2 | [C,A,]>[C,A,] [B,,G,]>[B,,G,] [A,,A,]2 [=A,,_G,]2 | %6
 (3[B,,G,][B,,G,][B,,G,] [B,,G,]>[B,,G,] [B,,F,]>[B,,F,] [B,,B,]>[B,,A,] |[M:3/4] [E,G,]6 | %8
[M:1/4] [E,B,]>[E,E] |[M:4/4][K:treble] [A,EA]>[A,EA] [A,EA]>[A,C] [A,EA]2 [A,CA]>[A,EA] | %10
 [E,E]>[E,E] [E,E]>[E,B,] [E,E]2 [E,E]>[E,B,] | %11
 [B,,B,]>[B,,B,] [B,,B,]>[B,,B,] [B,,B,]2 [D,B,]>[D,B,] | [E,B,]2 [E,E]>[E,E] [E,E]2 [E,B,]>[E,E] | %13
[M:3/4][K:treble] [A,EA]>[A,EA] [A,EA]>[A,C] [A,EA]2 |[M:1/4] [A,CA]>[A,EA] | %15
[M:4/4][K:bass] [E,E]>[E,E] [E,E]>[E,B,E] [G,B,E]4 | %16
 (3[B,EG][B,EG][B,EG] [B,EG]>[B,E][K:bass] [B,,F,]>[B,,F,] [B,,B,]>[B,,A,] | [E,G,]6 z2 |] %18
V:3
 x8 | x8 | x8 | x8 | x8 | x8 | x8 |[M:3/4] x6 |[M:1/4] x2 |[M:4/4] x8 | x8 | x8 | G2 z2 z4 | %13
[M:3/4] x6 |[M:1/4] x2 |[M:4/4] x8 | x8 | x8 |] %18

